icons/baby_female_0609m_fill.svg

<svg width="48" height="48" viewBox="0 0 48 48" fill="none" xmlns="http://www.w3.org/2000/svg">
<path fill-rule="evenodd" clip-rule="evenodd" d="M16 11C16 13.419 14.2822 15.4367 12 15.9V18L14 18C14.5523 18 15 18.4477 15 19C15 19.5523 14.5523 20 14 20L12 20V23C12 23.5523 11.5523 24 11 24C10.4477 24 10 23.5523 10 23V20L8 20C7.44772 20 7 19.5523 7 19C7 18.4477 7.44771 18 8 18L10 18V15.9C7.71776 15.4367 6 13.419 6 11C6 8.23858 8.23858 6 11 6C13.7614 6 16 8.23858 16 11ZM14 11C14 12.6569 12.6569 14 11 14C9.34315 14 8 12.6569 8 11C8 9.34315 9.34315 8 11 8C12.6569 8 14 9.34315 14 11Z" fill="black"/>
<path d="M30 17C33.0376 17 35.5 14.5376 35.5 11.5C35.5 8.46243 33.0376 6 30 6C26.9624 6 24.5 8.46243 24.5 11.5C24.5 14.5376 26.9624 17 30 17Z" fill="black"/>
<path d="M40.4803 21.429C41.5525 21.1638 42.2067 20.0795 41.9415 19.0073C41.6762 17.935 40.592 17.2808 39.5197 17.5461C35.7072 18.4892 32.8335 18.9127 30.0074 18.902C27.1756 18.8912 24.2945 18.4442 20.4585 17.5408C19.3833 17.2876 18.3065 17.9539 18.0533 19.0291C17.8 20.1042 18.4664 21.1811 19.5415 21.4343C21.5157 21.8992 23.3021 22.2613 25 22.5095V24H35V22.5357C36.7024 22.2895 38.4956 21.92 40.4803 21.429Z" fill="black"/>
<path d="M25 28V26H35V28H25Z" fill="black"/>
<path d="M26.4348 33.8563C25.2527 33.3191 24.4586 32.507 23.9809 31.6995C22.4293 33.05 21.5748 34.7484 21.5748 36.9895C21.5748 37.8834 21.7661 39.2247 22.263 40.3117C22.7719 41.4249 23.4552 42 24.3187 42C25.2453 42 26.0296 41.2909 26.0296 40.3783C26.0296 39.9723 25.8577 39.5884 25.5859 39.0177L25.5679 38.98C25.3217 38.4636 24.9966 37.7819 24.9966 36.9895C24.9966 36.1227 25.4264 35.2027 25.9267 34.4579C26.0873 34.2187 26.2573 34.0241 26.4348 33.8563Z" fill="black"/>
<path d="M33.5652 33.8563C34.7474 33.319 35.5415 32.5069 36.0191 31.6995C37.5707 33.05 38.4253 34.7483 38.4253 36.9895C38.4253 37.8834 38.234 39.2247 37.7371 40.3117C37.2282 41.4249 36.5449 42 35.6814 42C34.7549 42 33.9706 41.2909 33.9706 40.3783C33.9706 39.9723 34.1424 39.5884 34.4142 39.0177L34.4322 38.98C34.6785 38.4636 35.0035 37.7819 35.0035 36.9895C35.0035 36.1227 34.5737 35.2027 34.0735 34.4579C33.9128 34.2187 33.7428 34.0241 33.5652 33.8563Z" fill="black"/>
<path d="M27.3206 31.9796C26.2398 31.4984 25.6089 30.694 25.2844 30H34.7156C34.3911 30.694 33.7602 31.4984 32.6794 31.9796C32.4791 32.0688 32.254 32.1806 32.0516 32.2811L31.9326 32.3401C31.684 32.463 31.4433 32.5792 31.2 32.6823C30.6925 32.8973 30.2967 33 30 33C29.7033 33 29.3075 32.8973 28.8 32.6823C28.5567 32.5792 28.316 32.463 28.0674 32.3401L27.9483 32.2811C27.746 32.1806 27.5208 32.0688 27.3206 31.9796Z" fill="black"/>
</svg>

<svg
  xmlns="http://www.w3.org/2000/svg"
  width="24"
  height="24"
  viewBox="0 0 24 24"
  fill="none"
  stroke="currentColor"
  stroke-width="2"
  stroke-linecap="round"
  stroke-linejoin="round"
>
  <path
    fill-rule="evenodd"
    d="M16 11a5 5 0 0 1-4 4.9V18h2a1 1 0 1 1 0 2h-2v3a1 1 0 1 1-2 0v-3H8a1 1 0 1 1 0-2h2v-2.1A5.002 5.002 0 0 1 11 6a5 5 0 0 1 5 5m-2 0a3 3 0 1 1-6 0 3 3 0 0 1 6 0"
    clip-rule="evenodd"
  />
  <path d="M30 17a5.5 5.5 0 1 0 0-11 5.5 5.5 0 0 0 0 11" />
  <path d="M40.48 21.429a2 2 0 0 0-.96-3.883c-3.813.943-6.687 1.367-9.513 1.356-2.831-.01-5.713-.458-9.548-1.361a2 2 0 1 0-.918 3.893c1.975.465 3.761.827 5.459 1.075V24h10v-1.464c1.702-.247 3.496-.616 5.48-1.107" />
  <path d="M25 28v-2h10v2z" />
  <path d="M26.435 33.856c-1.182-.537-1.976-1.349-2.454-2.157-1.552 1.351-2.406 3.05-2.406 5.29 0 .894.191 2.236.688 3.323.509 1.113 1.192 1.688 2.056 1.688.926 0 1.71-.71 1.71-1.622 0-.406-.171-.79-.443-1.36l-.018-.038c-.246-.516-.571-1.198-.571-1.99 0-.867.43-1.787.93-2.532.16-.24.33-.434.508-.602" />
  <path d="M33.565 33.856c1.182-.537 1.977-1.35 2.454-2.157 1.552 1.351 2.406 3.05 2.406 5.29 0 .894-.191 2.236-.688 3.323C37.228 41.425 36.545 42 35.681 42c-.926 0-1.71-.71-1.71-1.622 0-.406.171-.79.443-1.36l.018-.038c.246-.516.572-1.198.572-1.99 0-.867-.43-1.787-.93-2.532a3.5 3.5 0 0 0-.509-.602" />
  <path d="M27.32 31.98A4.04 4.04 0 0 1 25.285 30h9.432a4.04 4.04 0 0 1-2.037 1.98c-.2.089-.425.2-.627.301l-.12.06c-.248.122-.489.238-.732.341-.508.215-.903.318-1.2.318s-.692-.103-1.2-.318c-.243-.103-.484-.219-.733-.342l-.119-.059c-.202-.1-.427-.212-.627-.301" />
</svg>
